X:179
M:6/4
L:1/8
K:F
d2 | c4F2 A3GF2 | G2A2G2 B4d2 | c4F2 A3GA2 | F2f2c2 A2B2c2 | d2c2d2 f2c2A2 |
(F2f2)c2 A3Bc2 | BA Bcde f3FA2 | G2A2G2 B4f2 | c4B2 A4G2 | (F2f2)c2 A4F2 :|

